X:3048
T:Med kort trea
R:Polska
M:8/16
L:1/16
K:Am
|: f3 !trill!f2e d2 | efe ded c2 | c2B A2^G AB | cAc B^GB A2 |
f3 !trill!f2e d2 | efe ded c2 | c2B A2^G (3ABc | A6 !fine! y y e2 :|
|: e2f e2^d e^f | ^g2a bgb a2 | =g2^f e2^d ef | geg ^f^df e2 |
e2f e2^d e^f | ^g2a bgb a2 | =g2^f e2^d (3efg | e6 z2 !D.C.! :|
(:musicend:)
(:music:)
